svg/Filled/play-back_filled.svg

<svg viewBox="0 0 24 24" xmlns="http://www.w3.org/2000/svg" width="24" height="24"><path d="m19.87 5.47.22.03c.52.1.99.38 1.3.81l.1.14c.2.33.26.7.29 1.02q.04.57.03 1.4v6.26q0 .83-.03 1.4c-.04.37-.11.8-.39 1.16l-.14.17a2 2 0 0 1-1.38.67h-.17a2.4 2.4 0 0 1-1.02-.3q-.5-.27-1.2-.72l-4.93-3.13-.37-.24v.99q0 .83-.03 1.4c-.03.37-.11.8-.38 1.16l-.15.17a2 2 0 0 1-1.38.67h-.17a2.4 2.4 0 0 1-1.01-.3q-.51-.27-1.2-.72l-4.94-3.13q-.62-.39-1.04-.7a2 2 0 0 1-.65-.72l-.07-.14a2 2 0 0 1-.08-1.44l.08-.2c.16-.39.45-.66.72-.87l.47-.32.57-.37 4.93-3.13q.7-.46 1.2-.72a2.3 2.3 0 0 1 1.2-.3l.22.03c.51.1.98.38 1.3.81l.09.14c.2.33.26.7.29 1.02q.04.57.03 1.4v.98l.37-.23 4.93-3.13q.7-.46 1.2-.72c.33-.17.74-.33 1.19-.3"/></svg>

<svg viewBox="0 0 24 24" xmlns="http://www.w3.org/2000/svg" width="24" height="24"><path d="M19.87 5.47L20.09 5.5C20.61 5.6 21.08 5.88 21.39 6.31L21.49 6.45C21.69 6.78 21.75 7.15 21.78 7.47Q21.82 8.04 21.81 8.87L21.81 15.13Q21.81 15.96 21.78 16.53C21.74 16.9 21.67 17.33 21.39 17.69L21.25 17.86A2 2 0 0 1 19.87 18.53L19.7 18.53A2.4 2.4 0 0 1 18.68 18.23Q18.18 17.96 17.48 17.51L12.18 14.14L12.18 15.13Q12.18 15.96 12.15 16.53C12.12 16.9 12.04 17.33 11.77 17.69L11.62 17.86A2 2 0 0 1 10.24 18.53L10.07 18.53A2.4 2.4 0 0 1 9.06 18.23Q8.55 17.96 7.86 17.51L2.92 14.38Q2.3 13.99 1.88 13.68A2 2 0 0 1 1.23 12.96L1.16 12.82A2 2 0 0 1 1.08 11.38L1.16 11.18C1.32 10.79 1.61 10.52 1.88 10.31L2.92 9.62L7.85 6.49Q8.55 6.03 9.05 5.77A2.3 2.3 0 0 1 10.25 5.47L10.47 5.5C10.98 5.6 11.45 5.88 11.77 6.31L11.86 6.45C12.06 6.78 12.12 7.15 12.15 7.47Q12.19 8.04 12.18 8.87L12.18 9.85L17.48 6.49Q18.18 6.03 18.68 5.77C19.01 5.6 19.42 5.44 19.87 5.47"/></svg>
